!!!COM: Olivier (Eugène Prosper Charles) Messiaen
!!!OTL: [T727_Mes-w9p9m1-8]
**kern	**kern	**dynam	**kern	**dynam
*grp:A	*grp:B	*	*grp:B	*grp:B
*part2	*part2	*part2	*part1	*part1
*staff3	*staff2	*	*staff1	*
*I"Piano	*	*	*I"Violin	*
*I'Pno.	*	*	*I'Vln.	*
*clefG2	*clefG2	*	*clefG2	*
*k[]	*k[]	*	*k[]	*
*C:	*C:	*	*C:	*
*M4/4	*M4/4	*	*M4/4	*
*met(c)	*met(c)	*	*met(c)	*
=1	=1	=1	=1	=1
!	!	!	!LO:TX:t=[half]=92	!
!	!LO:TX:a:t=Vif et passionné [eighth]=[sixteenth] de la Variation preécédente	!	!LO:TX:a:t=Vif et passionné	!LO:DY:ed=brack
12B-XL	8ryy	4ryy	8ryy	4ryy
12e-X	.	.	.	.
.	8ryy	.	8ryy	.
12gJ	.	.	.	.
12BnL	8ryy	.	4ryy	.
12en	.	.	.	.
.	8ryy	.	.	.
12a-XJ	.	.	.	.
12e-XL	8ryy	.	2ryy	.
12a-X	.	.	.	.
.	8ryy	.	.	.
12ccJ	.	.	.	.
12enL	8ryy	.	.	.
12b-X	.	.	.	.
.	8ryy	.	.	.
12ddJ	.	.	.	.
=2	=2	=2	=2	=2
12e-XL	8ryy	.	1ryy	.
12a-X	.	.	.	.
.	8ryy	.	.	.
12ccJ	.	.	.	.
12BnL	8ryy	.	.	.
12en	.	.	.	.
.	8ryy	.	.	.
12a-XJ	.	.	.	.
12B-XL	8ryy	.	.	.
12e-X	.	.	.	.
.	8ryy	.	.	.
12gJ	.	.	.	.
*	*8va	*	*	*
12A-XL	8ryy	.	.	.
12c	.	.	.	.
.	8ryy	.	.	.
12e-XJ	.	.	.	.
!!linebreak:original
=3	=3	=3	=3	=3
*	*X8va	*	*	*
!	!	!	!LO:TX:a:i:t=passionné	!
12B-XL	8ryy	.	8ryy	4ryy
12e-X	.	.	.	.
.	8ryy	.	8ryy	.
12gJ	.	.	.	.
12BnL	8ryy	.	2ryy	4ryy
12en	.	.	.	.
.	8ryy	.	.	4ryy
12a-XJ	.	.	.	.
*Xtuplet	*	*	*	*
12e-XL	8ryy	.	.	.
12a-X	.	.	.	.
.	8ryy	.	.	.
12ccJ	.	.	.	.
12enL	8ryy	.	4ryy	.
12b-X	.	.	.	.
.	8ryy	.	.	.
12ddJ	.	.	.	4ryy
=4	=4	=4	=4	=4
12e-XL	8ryy	.	2ryy	.
12a-X	.	.	.	.
.	8ryy	.	.	.
12ccJ	.	.	.	.
12BnL	8ryy	.	.	.
12en	.	.	.	.
.	8ryy	.	.	.
12a-XJ	.	.	.	.
12B-XL	8ryy	.	4ryy	.
12e-X	.	.	.	.
.	8ryy	.	.	.
12gJ	.	.	.	.
*	*8va	*	*	*
12A-XL	8ryy	.	4ryy	.
12c	.	.	.	.
.	8ryy	.	.	.
12e-XJ	.	.	.	.
=5	=5	=5	=5	=5
*	*X8va	*	*	*
12B-XL	8ryy	.	8ryy	4ryy
12e-X	.	.	.	.
.	8ryy	.	8ryy	.
12gJ	.	.	.	.
12BnL	8ryy	.	2ryy	4ryy
12en	.	.	.	4ryy
.	8ryy	.	.	.
12a-XJ	.	.	.	.
12e-XL	8ryy	.	.	.
12a-	.	.	.	.
.	8ryy	.	.	.
12ccJ	.	.	.	.
12enL	8ryy	.	4ryy	.
12b-X	.	.	.	.
.	8ryy	.	.	.
12ddJ	.	.	.	4ryy
!!linebreak:original
=6	=6	=6	=6	=6
12e-XL	8ryy	.	2ryy	.
12a-X	.	.	.	.
.	8ryy	.	.	.
12ccJ	.	.	.	.
12BnL	8ryy	.	.	.
12en	.	.	.	.
.	8ryy	.	.	.
12a-XJ	.	.	.	.
12B-XL	8ryy	.	4ryy	.
12e-X	.	.	.	.
.	8ryy	.	.	.
12gJ	.	.	.	.
*	*8va	*	*	*
12A-XL	8ryy	.	4ryy	.
12c	.	.	.	.
.	8ryy	.	.	.
12e-XJ	.	.	.	.
=7	=7	=7	=7	=7
*	*X8va	*	*	*
12B-XL	8ryy	.	8ryy	.
12e-X	.	.	.	.
.	8ryy	.	8ryy	.
12gJ	.	.	.	.
12BnL	8ryy	.	4ryy	.
12en	.	.	.	.
.	8ryy	.	.	.
12a-XJ	.	.	.	.
12e-XL	8ryy	.	8ryy	.
12a-X	.	.	.	.
.	8ryy	.	8ryy	.
12ccJ	.	.	.	.
12enL	8ryy	.	4ryy	.
12b-X	.	.	.	.
.	8ryy	.	.	.
12ddJ	.	.	.	.
=8	=8	=8	=8	=8
12e-XL	8ryy	.	8ryy	.
12a-X	.	.	.	.
.	8ryy	.	8ryy	.
12ccJ	.	.	.	.
12BnL	8ryy	.	4ryy	.
12en	.	.	.	.
.	8ryy	.	.	.
12a-XJ	.	.	.	.
12B-XL	8ryy	.	8ryy	.
12e-X	.	.	.	.
.	8ryy	.	8ryy	.
12gJ	.	.	.	.
*	*8va	*	*	*
12A-XL	8ryy	.	4ryy	.
12c	.	.	.	.
.	8ryy	.	.	.
12e-XJ	.	.	.	.
*	*X8va	*	*	*
=	=	=	=	=
*-	*-	*-	*-	*-
!!!system-decoration: s1[({(s2,s3)})]
!!!EED: Jason Lee
!!!EEV: 2021/09/14
